assets/server-logo-haloween.svg

<svg width="512px" height="512px" viewBox="0 0 512 512" version="1.1" xmlns="http://www.w3.org/2000/svg" xmlns:xlink="http://www.w3.org/1999/xlink">
    <!-- Generator: Sketch 49.2 (51160) - http://www.bohemiancoding.com/sketch -->
    <desc>Created with Sketch.</desc>
    <defs></defs>
    <g id="Page-1" stroke="none" stroke-width="1" fill="none" fill-rule="evenodd">
        <g id="server-logo" fill-rule="nonzero">
            <circle id="Oval" fill="#662E57" cx="256" cy="256" r="256"></circle>
            <path d="M512,256 C512,231.641 508.596,208.077 502.24,185.756 L432.791,116.307 L305.207,54.707 L268,17.5 L223.667,49 L109.228,96.333 L54.707,205.667 L17.5,268 L54.707,305.207 L91.15,409.565 L183.008,501.423 C206.142,508.293 230.636,512 256,512 C397.385,512 512,397.385 512,256 Z" id="Shape" fill="#590F38"></path>
            <path d="M240.267,236.137 C251.487,236.137 259.133,224.833 255.018,214.394 C252.094,206.975 250.487,198.894 250.487,190.435 C250.487,153.942 280.36,124.426 316.986,125.008 C351.509,125.556 379.968,153.328 381.308,187.829 C382.183,210.362 371.658,230.486 355.037,242.898 C370.751,251.827 381.358,268.705 381.358,288.07 L381.358,304.154 C381.358,353.574 341.295,393.637 291.875,393.637 L205.981,393.637 C152.546,393.637 109.228,350.319 109.228,296.883 L109.228,200.822 L122.092,218.087 C130.555,229.445 143.886,236.136 158.049,236.136 L240.267,236.136 L240.267,236.137 Z" id="Shape" fill="#FFDC00"></path>
            <path d="M355.037,242.898 C371.658,230.486 382.183,210.362 381.308,187.829 C379.968,153.328 351.509,125.556 316.986,125.008 C280.36,124.427 250.487,153.943 250.487,190.436 C250.487,198.894 252.094,206.976 255.018,214.394 C259.133,224.832 251.487,236.137 240.267,236.137 L209.667,236.137 L209.667,393.637 L291.876,393.637 C341.296,393.637 381.359,353.574 381.359,304.154 L381.359,288.07 C381.358,268.705 370.751,251.827 355.037,242.898 Z" id="Shape" fill="#FFC000"></path>
            <circle id="Oval" fill="#005C83" cx="335.31" cy="188.01" r="8.656"></circle>
            <path d="M381.358,179.357 L411.073,191.031 C422.887,195.672 421.741,212.753 409.414,215.775 L371.431,225.088 C371.431,225.088 355.738,225.058 351.583,215.364 C347.429,205.67 368.202,203.592 381.358,179.357 Z" id="Shape" fill="#F7674F"></path>
            <path d="M494.5,244 L480.973,244 C478.071,188.332 455.018,136.405 415.307,96.693 C375.595,56.982 323.668,33.929 268,31.026 L268,17.5 L244,17.5 L244,31.026 C188.332,33.928 136.405,56.982 96.693,96.693 C56.981,136.404 33.929,188.332 31.027,244 L17.5,244 L17.5,268 L31.027,268 C33.929,323.668 56.982,375.595 96.694,415.307 C136.406,455.019 188.332,478.071 244,480.974 L244,494.5 L268,494.5 L268,480.974 C323.668,478.072 375.595,455.018 415.307,415.307 C455.018,375.596 478.071,323.669 480.973,268 L494.5,268 L494.5,244 Z M268,456.926 L268,431.5 L244,431.5 L244,456.926 C142.544,450.93 61.071,369.455 55.075,268 L80.5,268 L80.5,244 L55.075,244 C61.071,142.545 142.544,61.07 244,55.074 L244,80.5 L268,80.5 L268,55.074 C369.455,61.07 450.929,142.545 456.925,244 L431.5,244 L431.5,268 L456.925,268 C450.929,369.455 369.455,450.93 268,456.926 Z" id="Shape" fill="#35CCFF"></path>
            <path d="M494.5,244 L480.973,244 C478.071,188.332 455.018,136.405 415.307,96.693 C375.595,56.982 323.668,33.929 268,31.026 L268,17.5 L244,17.5 L244,31.026 C188.332,33.928 136.405,56.982 96.693,96.693 C56.981,136.404 33.929,188.332 31.027,244 L17.5,244 L17.5,268 L31.027,268 C33.929,323.668 56.982,375.595 96.694,415.307 C136.406,455.019 188.332,478.071 244,480.974 L244,494.5 L268,494.5 L268,480.974 C323.668,478.072 375.595,455.018 415.307,415.307 C455.018,375.596 478.071,323.669 480.973,268 L494.5,268 L494.5,244 Z M268,456.926 L268,431.5 L244,431.5 L244,456.926 C142.544,450.93 61.071,369.455 55.075,268 L80.5,268 L80.5,244 L55.075,244 C61.071,142.545 142.544,61.07 244,55.074 L244,80.5 L268,80.5 L268,55.074 C369.455,61.07 450.929,142.545 456.925,244 L431.5,244 L431.5,268 L456.925,268 C450.929,369.455 369.455,450.93 268,456.926 Z" id="Shape" fill="#35CCFF"></path>
            <path d="M480.973,244 C478.071,188.332 455.018,136.405 415.307,96.693 C375.595,56.982 323.668,33.929 268,31.026 L268,17.5 L255.667,17.5 L255.667,80.5 L268,80.5 L268,55.074 C369.455,61.07 450.929,142.545 456.925,244 L431.5,244 L431.5,268 L456.925,268 C450.929,369.455 369.455,450.93 268,456.926 L268,431.5 L255.667,431.5 L255.667,494.5 L268,494.5 L268,480.974 C323.668,478.072 375.595,455.018 415.307,415.307 C455.018,375.596 478.071,323.669 480.973,268 L494.5,268 L494.5,244 L480.973,244 Z" id="Shape" fill="#00BAFF"></path>
        </g>
        <g id="skull" transform="translate(238.000000, 440.000000)" fill-rule="nonzero">
            <path d="M31.5197508,5.41808594 C27.9858567,1.92427734 23.2872274,0 18.2897196,0 L11,20.5 L18.2897196,41 L31.6542056,41 L31.6542056,26.90625 L37,26.90625 L37,18.4980469 C37,13.5572266 35.0536449,8.91189453 31.5197508,5.41808594 Z" id="Shape" fill="#C6B691"></path>
            <path d="M5.56510823,5.41808594 C1.97649351,8.91189453 0,13.5572266 0,18.4980469 L0,26.90625 L5.42857143,26.90625 L5.42857143,41 L19,41 L19,0 C13.9251082,0 9.15372294,1.92427734 5.56510823,5.41808594 Z" id="Shape" fill="#E3D1A4"></path>
            <rect id="Rectangle-path" fill="#544A33" x="15" y="22" width="2" height="5"></rect>
            <rect id="Rectangle-path" fill="#1C1207" x="20" y="22" width="2" height="5"></rect>
            <path d="M10.5,21 C7.46731618,21 5,18.5326838 5,15.5 C5,12.4673162 7.46731618,10 10.5,10 C13.5326838,10 16,12.4673162 16,15.5 C16,18.5326838 13.5326838,21 10.5,21 Z" id="Shape" fill="#544A33"></path>
            <path d="M26.5,21 C23.4673162,21 21,18.5326838 21,15.5 C21,12.4673162 23.4673162,10 26.5,10 C29.5326838,10 32,12.4673162 32,15.5 C32,18.5326838 29.5326838,21 26.5,21 Z" id="Shape" fill="#1C1207"></path>
            <polygon id="Shape" fill="#FFE49E" points="29 32.6666667 27.3783784 36 18.8648649 36 14 31"></polygon>
            <g id="Group" transform="translate(8.000000, 29.000000)" fill="#FFF2CF">
                <polygon id="Shape" points="10 1.75 10 7 1.6 7 0 3.5"></polygon>
                <polygon id="Shape" points="18.4 0 20 3.5 10 3.5 8.4 1.75 10 0"></polygon>
            </g>
            <polygon id="Shape" fill="#FFFFFF" points="18 29 18 33 8 33 9.6 29"></polygon>
            <rect id="Rectangle-path" fill="#1C1207" x="27" y="29" width="2" height="7"></rect>
            <rect id="Rectangle-path" fill="#544A33" x="8" y="29" width="2" height="7"></rect>
        </g>
        <g id="skull" transform="translate(34.500000, 256.500000) rotate(-90.000000) translate(-34.500000, -256.500000) translate(16.000000, 236.000000)" fill-rule="nonzero">
            <path d="M31.5197508,5.41808594 C27.9858567,1.92427734 23.2872274,0 18.2897196,0 L11,20.5 L18.2897196,41 L31.6542056,41 L31.6542056,26.90625 L37,26.90625 L37,18.4980469 C37,13.5572266 35.0536449,8.91189453 31.5197508,5.41808594 Z" id="Shape" fill="#C6B691"></path>
            <path d="M5.56510823,5.41808594 C1.97649351,8.91189453 0,13.5572266 0,18.4980469 L0,26.90625 L5.42857143,26.90625 L5.42857143,41 L19,41 L19,0 C13.9251082,0 9.15372294,1.92427734 5.56510823,5.41808594 Z" id="Shape" fill="#E3D1A4"></path>
            <rect id="Rectangle-path" fill="#544A33" x="15" y="22" width="2" height="5"></rect>
            <rect id="Rectangle-path" fill="#1C1207" x="20" y="22" width="2" height="5"></rect>
            <path d="M10.5,21 C7.46731618,21 5,18.5326838 5,15.5 C5,12.4673162 7.46731618,10 10.5,10 C13.5326838,10 16,12.4673162 16,15.5 C16,18.5326838 13.5326838,21 10.5,21 Z" id="Shape" fill="#544A33"></path>
            <path d="M26.5,21 C23.4673162,21 21,18.5326838 21,15.5 C21,12.4673162 23.4673162,10 26.5,10 C29.5326838,10 32,12.4673162 32,15.5 C32,18.5326838 29.5326838,21 26.5,21 Z" id="Shape" fill="#1C1207"></path>
            <polygon id="Shape" fill="#FFE49E" points="29 32.6666667 27.3783784 36 18.8648649 36 14 31"></polygon>
            <g id="Group" transform="translate(8.000000, 29.000000)" fill="#FFF2CF">
                <polygon id="Shape" points="10 1.75 10 7 1.6 7 0 3.5"></polygon>
                <polygon id="Shape" points="18.4 0 20 3.5 10 3.5 8.4 1.75 10 0"></polygon>
            </g>
            <polygon id="Shape" fill="#FFFFFF" points="18 29 18 33 8 33 9.6 29"></polygon>
            <rect id="Rectangle-path" fill="#1C1207" x="27" y="29" width="2" height="7"></rect>
            <rect id="Rectangle-path" fill="#544A33" x="8" y="29" width="2" height="7"></rect>
        </g>
        <g id="skull" transform="translate(477.500000, 256.500000) rotate(-270.000000) translate(-477.500000, -256.500000) translate(459.000000, 236.000000)" fill-rule="nonzero">
            <path d="M31.5197508,5.41808594 C27.9858567,1.92427734 23.2872274,0 18.2897196,0 L11,20.5 L18.2897196,41 L31.6542056,41 L31.6542056,26.90625 L37,26.90625 L37,18.4980469 C37,13.5572266 35.0536449,8.91189453 31.5197508,5.41808594 Z" id="Shape" fill="#C6B691"></path>
            <path d="M5.56510823,5.41808594 C1.97649351,8.91189453 0,13.5572266 0,18.4980469 L0,26.90625 L5.42857143,26.90625 L5.42857143,41 L19,41 L19,0 C13.9251082,0 9.15372294,1.92427734 5.56510823,5.41808594 Z" id="Shape" fill="#E3D1A4"></path>
            <rect id="Rectangle-path" fill="#544A33" x="15" y="22" width="2" height="5"></rect>
            <rect id="Rectangle-path" fill="#1C1207" x="20" y="22" width="2" height="5"></rect>
            <path d="M10.5,21 C7.46731618,21 5,18.5326838 5,15.5 C5,12.4673162 7.46731618,10 10.5,10 C13.5326838,10 16,12.4673162 16,15.5 C16,18.5326838 13.5326838,21 10.5,21 Z" id="Shape" fill="#544A33"></path>
            <path d="M26.5,21 C23.4673162,21 21,18.5326838 21,15.5 C21,12.4673162 23.4673162,10 26.5,10 C29.5326838,10 32,12.4673162 32,15.5 C32,18.5326838 29.5326838,21 26.5,21 Z" id="Shape" fill="#1C1207"></path>
            <polygon id="Shape" fill="#FFE49E" points="29 32.6666667 27.3783784 36 18.8648649 36 14 31"></polygon>
            <g id="Group" transform="translate(8.000000, 29.000000)" fill="#FFF2CF">
                <polygon id="Shape" points="10 1.75 10 7 1.6 7 0 3.5"></polygon>
                <polygon id="Shape" points="18.4 0 20 3.5 10 3.5 8.4 1.75 10 0"></polygon>
            </g>
            <polygon id="Shape" fill="#FFFFFF" points="18 29 18 33 8 33 9.6 29"></polygon>
            <rect id="Rectangle-path" fill="#1C1207" x="27" y="29" width="2" height="7"></rect>
            <rect id="Rectangle-path" fill="#544A33" x="8" y="29" width="2" height="7"></rect>
        </g>
        <g id="skull" transform="translate(238.000000, 14.000000)" fill-rule="nonzero">
            <path d="M31.5197508,5.41808594 C27.9858567,1.92427734 23.2872274,0 18.2897196,0 L11,20.5 L18.2897196,41 L31.6542056,41 L31.6542056,26.90625 L37,26.90625 L37,18.4980469 C37,13.5572266 35.0536449,8.91189453 31.5197508,5.41808594 Z" id="Shape" fill="#C6B691"></path>
            <path d="M5.56510823,5.41808594 C1.97649351,8.91189453 0,13.5572266 0,18.4980469 L0,26.90625 L5.42857143,26.90625 L5.42857143,41 L19,41 L19,0 C13.9251082,0 9.15372294,1.92427734 5.56510823,5.41808594 Z" id="Shape" fill="#E3D1A4"></path>
            <rect id="Rectangle-path" fill="#544A33" x="15" y="22" width="2" height="5"></rect>
            <rect id="Rectangle-path" fill="#1C1207" x="20" y="22" width="2" height="5"></rect>
            <path d="M10.5,21 C7.46731618,21 5,18.5326838 5,15.5 C5,12.4673162 7.46731618,10 10.5,10 C13.5326838,10 16,12.4673162 16,15.5 C16,18.5326838 13.5326838,21 10.5,21 Z" id="Shape" fill="#544A33"></path>
            <path d="M26.5,21 C23.4673162,21 21,18.5326838 21,15.5 C21,12.4673162 23.4673162,10 26.5,10 C29.5326838,10 32,12.4673162 32,15.5 C32,18.5326838 29.5326838,21 26.5,21 Z" id="Shape" fill="#1C1207"></path>
            <polygon id="Shape" fill="#FFE49E" points="29 32.6666667 27.3783784 36 18.8648649 36 14 31"></polygon>
            <g id="Group" transform="translate(8.000000, 29.000000)" fill="#FFF2CF">
                <polygon id="Shape" points="10 1.75 10 7 1.6 7 0 3.5"></polygon>
                <polygon id="Shape" points="18.4 0 20 3.5 10 3.5 8.4 1.75 10 0"></polygon>
            </g>
            <polygon id="Shape" fill="#FFFFFF" points="18 29 18 33 8 33 9.6 29"></polygon>
            <rect id="Rectangle-path" fill="#1C1207" x="27" y="29" width="2" height="7"></rect>
            <rect id="Rectangle-path" fill="#544A33" x="8" y="29" width="2" height="7"></rect>
        </g>
        <g id="pumpkin" transform="translate(315.500000, 176.000000) scale(-1, 1) translate(-315.500000, -176.000000) translate(248.000000, 104.000000)" fill-rule="nonzero">
            <path d="M71.9166667,29 L64,29 L64,20.5237084 C64,9.20687859 72.5233472,0 83,0 L83,8.55154518 C76.8885972,8.55154518 71.9166667,13.9222006 71.9166667,20.5237084 L71.9166667,29 Z" id="Shape" fill="#1C1207"></path>
            <path d="M87.0442169,21 C83.3220488,21 79.6062749,21.4539818 76,22.3493659 L76,142.650634 C79.6062749,143.546018 83.3220488,144 87.0442169,144 C113.487036,144 135,121.427264 135,93.6818182 L135,71.3181818 C135,43.5727364 113.487036,21 87.0442169,21 Z" id="Shape" fill="#FE7F1E"></path>
            <g id="Group" transform="translate(0.000000, 21.000000)" fill="#FFA533">
                <path d="M47.4770642,0 C51.1620757,0 54.8407569,0.453981818 58.4110321,1.34936591 L58.4110321,121.650634 C54.8407569,122.546018 51.1620757,123 47.4770642,123 C21.298211,123 0,100.427264 0,72.6818182 L0,50.3181818 C0,22.5727364 21.298211,0 47.4770642,0 Z" id="Shape"></path>
                <path d="M115,50.3181818 L115,72.6818182 C115,100.426705 93.7012615,123 67.5229358,123 L43.7844037,61.5 L67.5229358,0 C93.7012615,0 115,22.5732955 115,50.3181818 Z" id="Shape"></path>
            </g>
            <path d="M67,21 L67,144 C41.0847222,144 20,121.426705 20,93.6818182 L20,71.3181818 C20,43.5732955 41.0847222,21 67,21 Z" id="Shape" fill="#FFCB47"></path>
            <path d="M48,80 C41.3832,80 36,74.1682 36,67 C36,59.8318 41.3832,54 48,54 C54.6168,54 60,59.8318 60,67 C60,74.1682 54.6168,80 48,80 Z" id="Shape" fill="#AA4A0F"></path>
            <g id="Group" transform="translate(58.000000, 54.000000)" fill="#7F2F08">
                <path d="M29.0967742,25.5083936 C22.5333355,25.5083936 17.1935484,19.8333333 17.1935484,12.8577912 C17.1935484,5.882249 22.5333355,0.207188755 29.0967742,0.207188755 C35.6602129,0.207188755 41,5.882249 41,12.8577912 C41,19.8333333 35.6602129,25.5083936 29.0967742,25.5083936 Z" id="Shape"></path>
                <path d="M26.4516129,36.0514056 L26.4516129,44.4851406 L18.516129,44.4851406 L18.516129,36.0514056 L9.25806452,36.0514056 L0.188864516,52.9188755 L9.25806452,69.7863454 C26.7613613,69.7863454 41,54.6506024 41,36.0514056 L26.4516129,36.0514056 Z" id="Shape"></path>
            </g>
            <path d="M58.6666667,90 L58.6666667,98.5 L50.6666667,98.5 L50.6666667,90 L36,90 C36,108.745333 50.3544,124 68,124 L68,90 L58.6666667,90 Z" id="Shape" fill="#AA4A0F"></path>
        </g>
    </g>
</svg>

<svg width="512" height="512" viewBox="0 0 512 512" xmlns="http://www.w3.org/2000/svg"><title>server logo</title><g fill="none"><circle fill="#662E57" cx="256" cy="256" r="256"/><path d="M512 256c0-24.359-3.404-47.923-9.76-70.244l-69.449-69.449-127.584-61.6L268 17.5 223.667 49 109.228 96.333 54.707 205.667 17.5 268l37.207 37.207L91.15 409.565l91.858 91.858C206.142 508.293 230.636 512 256 512c141.385 0 256-114.615 256-256z" fill="#590F38"/><path d="M240.267 236.137c11.22 0 18.866-11.304 14.751-21.743a65.195 65.195 0 0 1-4.531-23.959c0-36.493 29.873-66.009 66.499-65.427 34.523.548 62.982 28.32 64.322 62.821.875 22.533-9.65 42.657-26.271 55.069 15.714 8.929 26.321 25.807 26.321 45.172v16.084c0 49.42-40.063 89.483-89.483 89.483h-85.894c-53.435 0-96.753-43.318-96.753-96.754v-96.061l12.864 17.265a44.84 44.84 0 0 0 35.957 18.049h82.218v.001z" fill="#FFDC00"/><path d="M355.037 242.898c16.621-12.412 27.146-32.536 26.271-55.069-1.34-34.501-29.799-62.273-64.322-62.821-36.626-.581-66.499 28.935-66.499 65.428a65.19 65.19 0 0 0 4.531 23.958c4.115 10.438-3.531 21.743-14.751 21.743h-30.6v157.5h82.209c49.42 0 89.483-40.063 89.483-89.483V288.07c-.001-19.365-10.608-36.243-26.322-45.172z" fill="#FFC000"/><circle fill="#005C83" cx="335.31" cy="188.01" r="8.656"/><path d="M381.358 179.357l29.715 11.674c11.814 4.641 10.668 21.722-1.659 24.744l-37.983 9.313s-15.693-.03-19.848-9.724c-4.154-9.694 16.619-11.772 29.775-36.007z" fill="#F7674F"/><path d="M494.5 244h-13.527c-2.902-55.668-25.955-107.595-65.666-147.307C375.595 56.982 323.668 33.929 268 31.026V17.5h-24v13.526c-55.668 2.902-107.595 25.956-147.307 65.667C56.981 136.404 33.929 188.332 31.027 244H17.5v24h13.527c2.902 55.668 25.955 107.595 65.667 147.307 39.712 39.712 91.638 62.764 147.306 65.667V494.5h24v-13.526c55.668-2.902 107.595-25.956 147.307-65.667 39.711-39.711 62.764-91.638 65.666-147.307H494.5v-24zM268 456.926V431.5h-24v25.426C142.544 450.93 61.071 369.455 55.075 268H80.5v-24H55.075C61.071 142.545 142.544 61.07 244 55.074V80.5h24V55.074C369.455 61.07 450.929 142.545 456.925 244H431.5v24h25.425C450.929 369.455 369.455 450.93 268 456.926z" fill="#35CCFF"/><path d="M494.5 244h-13.527c-2.902-55.668-25.955-107.595-65.666-147.307C375.595 56.982 323.668 33.929 268 31.026V17.5h-24v13.526c-55.668 2.902-107.595 25.956-147.307 65.667C56.981 136.404 33.929 188.332 31.027 244H17.5v24h13.527c2.902 55.668 25.955 107.595 65.667 147.307 39.712 39.712 91.638 62.764 147.306 65.667V494.5h24v-13.526c55.668-2.902 107.595-25.956 147.307-65.667 39.711-39.711 62.764-91.638 65.666-147.307H494.5v-24zM268 456.926V431.5h-24v25.426C142.544 450.93 61.071 369.455 55.075 268H80.5v-24H55.075C61.071 142.545 142.544 61.07 244 55.074V80.5h24V55.074C369.455 61.07 450.929 142.545 456.925 244H431.5v24h25.425C450.929 369.455 369.455 450.93 268 456.926z" fill="#35CCFF"/><path d="M480.973 244c-2.902-55.668-25.955-107.595-65.666-147.307C375.595 56.982 323.668 33.929 268 31.026V17.5h-12.333v63H268V55.074C369.455 61.07 450.929 142.545 456.925 244H431.5v24h25.425C450.929 369.455 369.455 450.93 268 456.926V431.5h-12.333v63H268v-13.526c55.668-2.902 107.595-25.956 147.307-65.667 39.711-39.711 62.764-91.638 65.666-147.307H494.5v-24h-13.527z" fill="#00BAFF"/><g transform="rotate(-180 138 250)"><path d="M33.309 5.682A19.318 19.318 0 0 0 19.57 0L12 21.5 19.57 43H33.45V28.219H39V19.4a19.259 19.259 0 0 0-5.691-13.718z" fill="#C6B691"/><path d="M5.858 5.682C2.081 9.347 0 14.22 0 19.4v8.819h5.714V43H20V0C14.658 0 9.635 2.018 5.858 5.682z" fill="#E3D1A4"/><path fill="#544A33" d="M16 23H18V28H16z"/><path fill="#1C1207" d="M21 23H23V28H21z"/><path d="M11 22c-3.308 0-6-2.692-6-6s2.692-6 6-6 6 2.692 6 6-2.692 6-6 6z" fill="#544A33"/><path d="M28 22c-3.308 0-6-2.692-6-6s2.692-6 6-6 6 2.692 6 6-2.692 6-6 6z" fill="#1C1207"/><path fill="#FFE49E" d="M31 34.6666667L29.2702703 38 20.1891892 38 15 33z"/><g transform="translate(8 30)" fill="#FFF2CF"><path d="M10.5 1.75L10.5 7 1.68 7 0 3.5z"/><path d="M19.32 0L21 3.5 10.5 3.5 8.82 1.75 10.5 0z"/></g><path fill="#FFF" d="M19 30L19 34 8 34 9.76 30z"/><path fill="#1C1207" d="M28 30H30V37H28z"/><path fill="#544A33" d="M8 30H10V37H8z"/></g><g transform="rotate(-90 144 131)"><path d="M32.309 5.55C28.639 1.971 23.759 0 18.57 0L11 21l7.57 21H32.45V27.562H38V18.95c0-5.061-2.021-9.82-5.691-13.399z" fill="#C6B691"/><path d="M5.858 5.55C2.081 9.13 0 13.888 0 18.95v8.613h5.714V42H20V0C14.658 0 9.635 1.971 5.858 5.55z" fill="#E3D1A4"/><path fill="#544A33" d="M15 23H17V28H15z"/><path fill="#1C1207" d="M21 23H23V28H21z"/><path d="M10.5 21A5.506 5.506 0 0 1 5 15.5c0-3.033 2.467-5.5 5.5-5.5s5.5 2.467 5.5 5.5-2.467 5.5-5.5 5.5z" fill="#544A33"/><path d="M27.5 21a5.506 5.506 0 0 1-5.5-5.5c0-3.033 2.467-5.5 5.5-5.5s5.5 2.467 5.5 5.5-2.467 5.5-5.5 5.5z" fill="#1C1207"/><path fill="#FFE49E" d="M29 33.6666667L27.3783784 37 18.8648649 37 14 32z"/><g transform="translate(8 30)" fill="#FFF2CF"><path d="M10.5 1.75L10.5 7 1.68 7 0 3.5z"/><path d="M19.32 0L21 3.5 10.5 3.5 8.82 1.75 10.5 0z"/></g><path fill="#FFF" d="M18 30L18 34 8 34 9.6 30z"/><path fill="#1C1207" d="M28 30H30V37H28z"/><path fill="#544A33" d="M8 30H10V37H8z"/></g><g transform="rotate(90 131 368)"><path d="M32.309 5.55C28.639 1.971 23.759 0 18.57 0L11 21l7.57 21H32.45V27.562H38V18.95c0-5.061-2.021-9.82-5.691-13.399z" fill="#C6B691"/><path d="M5.858 5.55C2.081 9.13 0 13.888 0 18.95v8.613h5.714V42H20V0C14.658 0 9.635 1.971 5.858 5.55z" fill="#E3D1A4"/><path fill="#544A33" d="M15 23H17V28H15z"/><path fill="#1C1207" d="M21 23H23V28H21z"/><path d="M10.5 21A5.506 5.506 0 0 1 5 15.5c0-3.033 2.467-5.5 5.5-5.5s5.5 2.467 5.5 5.5-2.467 5.5-5.5 5.5z" fill="#544A33"/><path d="M27.5 21a5.506 5.506 0 0 1-5.5-5.5c0-3.033 2.467-5.5 5.5-5.5s5.5 2.467 5.5 5.5-2.467 5.5-5.5 5.5z" fill="#1C1207"/><path fill="#FFE49E" d="M29 33.6666667L27.3783784 37 18.8648649 37 14 32z"/><g transform="translate(8 30)" fill="#FFF2CF"><path d="M10.5 1.75L10.5 7 1.68 7 0 3.5z"/><path d="M19.32 0L21 3.5 10.5 3.5 8.82 1.75 10.5 0z"/></g><path fill="#FFF" d="M18 30L18 34 8 34 9.6 30z"/><path fill="#1C1207" d="M28 30H30V37H28z"/><path fill="#544A33" d="M8 30H10V37H8z"/></g><g transform="translate(237 13)"><path d="M32.309 5.55C28.639 1.971 23.759 0 18.57 0L11 21l7.57 21H32.45V27.562H38V18.95c0-5.061-2.021-9.82-5.691-13.399z" fill="#C6B691"/><path d="M5.858 5.55C2.081 9.13 0 13.888 0 18.95v8.613h5.714V42H20V0C14.658 0 9.635 1.971 5.858 5.55z" fill="#E3D1A4"/><path fill="#544A33" d="M15 23H17V28H15z"/><path fill="#1C1207" d="M21 23H23V28H21z"/><path d="M10.5 21A5.506 5.506 0 0 1 5 15.5c0-3.033 2.467-5.5 5.5-5.5s5.5 2.467 5.5 5.5-2.467 5.5-5.5 5.5z" fill="#544A33"/><path d="M27.5 21a5.506 5.506 0 0 1-5.5-5.5c0-3.033 2.467-5.5 5.5-5.5s5.5 2.467 5.5 5.5-2.467 5.5-5.5 5.5z" fill="#1C1207"/><path fill="#FFE49E" d="M29 33.6666667L27.3783784 37 18.8648649 37 14 32z"/><g transform="translate(8 30)" fill="#FFF2CF"><path d="M10.5 1.75L10.5 7 1.68 7 0 3.5z"/><path d="M19.32 0L21 3.5 10.5 3.5 8.82 1.75 10.5 0z"/></g><path fill="#FFF" d="M18 30L18 34 8 34 9.6 30z"/><path fill="#1C1207" d="M28 30H30V37H28z"/><path fill="#544A33" d="M8 30H10V37H8z"/></g><g transform="matrix(-1 0 0 1 383 104)"><path d="M71.917 29H64v-8.476C64 9.207 72.523 0 83 0v8.552c-6.111 0-11.083 5.37-11.083 11.972V29z" fill="#1C1207"/><path d="M87.044 21c-3.722 0-7.438.454-11.044 1.35v120.3A45.876 45.876 0 0 0 87.044 144C113.487 144 135 121.427 135 93.682V71.318C135 43.573 113.487 21 87.044 21z" fill="#FE7F1E"/><g transform="translate(0 21)" fill="#FFA533"><path d="M47.477 0c3.685 0 7.364.454 10.934 1.35v120.3A44.988 44.988 0 0 1 47.477 123C21.298 123 0 100.427 0 72.682V50.318C0 22.573 21.298 0 47.477 0z"/><path d="M115 50.318v22.364C115 100.427 93.701 123 67.523 123L43.784 61.5 67.523 0C93.7 0 115 22.573 115 50.318z"/></g><path d="M67 21v123c-25.915 0-47-22.573-47-50.318V71.318C20 43.573 41.085 21 67 21z" fill="#FFCB47"/><path d="M48 80c-6.617 0-12-5.832-12-13s5.383-13 12-13 12 5.832 12 13-5.383 13-12 13z" fill="#AA4A0F"/><g transform="translate(58 54)" fill="#7F2F08"><path d="M29.097 25.508c-6.564 0-11.903-5.675-11.903-12.65 0-6.976 5.34-12.65 11.903-12.65C35.66.207 41 5.881 41 12.857c0 6.975-5.34 12.65-11.903 12.65zm-2.645 10.543v8.434h-7.936v-8.434H9.258L.188 52.92l9.07 16.867C26.761 69.786 41 54.651 41 36.051H26.452z"/></g><path d="M58.667 90v8.5h-8V90H36c0 18.745 14.354 34 32 34V90h-9.333z" fill="#AA4A0F"/></g></g></svg>
